!!!!SEGMENT: pl-wn--sd-xvi-qu-273--108_gomolka-mikolaj--ochotna-mysl-ochotne-serce-w-sobie-czuje.krn
!!!cenid: 15xx:313
!!!COM: Gomółka, Mikołaj
!!!COM-rismid: pe30013343
!!!CDT: ~1535->1591/04/30
!!!CNT: Polish
!!!GTL: Melodiae na psalterz polski
!!!OTL: CVIII. Ochotną myśl, ochotne serce w sobie czuję,
!!!ONB: PAratum cor meum Deus,
!!!PDT: 1580
!!!AGN: Sacred
!!!SMS-siglum: PL-Wn
!!!SMS-shelfmark: SD XVI.Qu.273
!!!SMS-shelfwork: 108 G
!!!NIFC-rismid:
!!!ONB-nifc: Melodiae na psalterz polski
**kern	**text	**kern	**text	**kern	**text	**kern	**text
*part4	*part4	*part3	*part3	*part2	*part2	*part1	*part1
*staff4	*staff4	*staff3	*staff3	*staff2	*staff2	*staff1	*staff1
*clefF3	*	*clefC3	*	*clefC3	*	*clefC1	*
*k[]	*	*k[]	*	*k[]	*	*k[]	*
*c:	*	*c:	*	*c:	*	*c:	*
*M4/2	*	*M4/2	*	*M4/2	*	*M4/2	*
*met(C|)	*	*met(C|)	*	*met(C|)	*	*met(C|)	*
=1-	=1-	=1-	=1-	=1-	=1-	=1-	=1-
!	!	!	!	!LO:TX:a:t=P:nie wyświetla się tekst pod pauzą:problem	!	!	!
2.C/	O-	2G/	O-	2r	O-	4c/	O-
.	.	.	.	.	.	4d/	-cho-
.	.	2.G/	-cho-	2.c/	-cho-	4e/	.
4D/	-cho-	.	.	.	.	4f/	-tną
4E/	-tną	.	.	.	.	2.g/	myśl,
4F/	.	4A/	-tną	4d\	-tną	.	.
2.G\	myśl,	4B/	.	4e\	.	.	.
.	.	4c/	myśl,	4f\	myśl,	4a\	.
=2-	=2-	=2-	=2-	=2-	=2-	=2-	=2-
.	.	2d\	.	2g\	o-	4b\	o-
4A\	.	.	.	.	.	4cc\	-cho-
4B\	o-	4G/	.	2g\	-cho-	2dd\	.
4c\	-cho-	4A/	o-	.	.	.	.
2d\	.	4B/	-cho-	2g\	-tné	4g/	-tné
.	.	4c/	.	.	.	4a\	ſer-
2G\	-tné	4d\	-tné	2d\	ſer-	4b\	.
.	.	4e\	.	.	.	4cc\	-ce
=3-	=3-	=3-	=3-	=3-	=3-	=3-	=3-
4D/	ſer-	2f\	ſer-	2d\	.	2dd\	.
4E/	-ce	.	.	.	.	.	.
4F\	w	2f\	-ce	2d\	.	4a\	w
4G\	ſo-	.	.	.	.	4b\	ſo-
2A\	-bie	2.e\	w	4c/	-ce	2.cc\	.
.	.	.	.	4d\	.	.	.
2A\	.	.	.	4e\	w	.	.
.	.	8d\L	ſo-	4f\	ſo-	8b\L	-bie
.	.	8c\J	-bie	.	.	8a\J	.
=4-	=4-	=4-	=4-	=4-	=4-	=4-	=4-
1G\	cʒu-	4d\	.	2.g\	-bie	4b\	cʒu-
.	.	4e\	cʒu-	.	.	2cc\	-ie,
.	.	2d\	-ię,	.	.	.	.
.	.	.	.	4f\	cʒu-	4b\	.
1C/	-ię,	1c\	.	1e\	-ię,	1cc\	No-
=5-	=5-	=5-	=5-	=5-	=5-	=5-	=5-
2.C/	No-	2.e\	No-	2.g\	No-	2.cc\	-wy
4C/	-wy	4e\	-wy	4g\	-wy	4cc\	.
!!LO:PB:g=original
2G\	Pſ-	2d\	Pſ-	2g\	Pſalm	2b\	Pſalm
2C/	-alm	2e\	-alm	2g\	Pa-	2cc\	.
=6-	=6-	=6-	=6-	=6-	=6-	=6-	=6-
4F/	.	2f\	.	2.c/	-nu	2a\	.
4G\	pánu	.	.	.	.	.	.
4A\	.	2f\	pá-	.	.	2a\	pánu
4E/	ſwe(mu)	.	.	4d\	ſwe-	.	.
2c\	no-	2e\	-nu	4e\	-mu,	1g\	.
.	.	.	.	4f\	.	.	.
2c\	-wą	2e\	ſwe-	2g\	no-	.	-nu
=7-	=7-	=7-	=7-	=7-	=7-	=7-	=7-
2B\	pieśń	2d\	(-mu)	2d\	-wą	2g/	ſwe(mu)
2c\	.	4e\	no-	1c\	.	4a\	no-
.	.	4d\	-wą	.	.	4g\	-wą
2A\	.	4c/	pieśń	.	go-	4f/	pieśń
.	.	2d\	.	.	.	2g/	.
2A\	go-	.	.	4B/	pieśń	.	.
.	.	4c/	go-	4A/	.	4f/	go-
=8-	=8-	=8-	=8-	=8-	=8-	=8-	=8-
2G\	tuię.	2d\	tu-	2B/	go-	2g/	-tu-
2C/	.	2c/	-ię:	2e\	-tuię.	2g/	-ię.
2E/	Po-	2.c/	.	2e\	.	2g/	Pow-
2F/	.	.	.	2c/	Pow-	2a\	.
.	.	8B/L	Pow-	.	.	.	.
.	.	8A/J	.	.	.	.	.
=9-	=9-	=9-	=9-	=9-	=9-	=9-	=9-
1D/	-wſtań	4B/	-ſtań	1d\	.	1f/	-ſtań
.	.	2c/	.	.	.	.	.
.	.	4B/	u-	.	.	.	.
2C/	.	2c/	ćie-	2e\	-stań	2e/	.
1c\	ućie-	1e\	-cho,	1g\	u-	1cc\	u-
=10-	=10-	=10-	=10-	=10-	=10-	=10-	=10-
.	.	.	.	.	.	.	.
2A\	-cho,	2c\	.	2a\	ćie-	2cc\	-ćie-
2c\	.	2.e\	pow-	2.g\	-cho,	2ee\	-cho,
2c\	powſtań	.	.	.	.	2ee\	powſtań
.	.	4c/	-ſtań	4e\	pow-	.	.
=11-	=11-	=11-	=11-	=11-	=11-	=11-	=11-
2d\	lu-	2f\	lu-	4f#\	-ſtań	2.dd\	lut-
.	.	.	.	2g\	lu-	.	.
2D/	-tni mo-	2d\	-tni mo-	.	.	.	.
!LO:PB:g=original	!	!LO:PB:g=original	!	!	!	!	!
!	!	!	!	!LO:SIC:v=prawdopodobnie powinno być "fis"	!	!	!
.	.	.	.	4f\	-tni	4cc\	-tni mo-
!	!	!	!	!	!	!LO:PB:g=original	!
2G\	-iá,	2d\	-iá,	2g\	mo-	2b\	-iá,
!	!	!	!	!LO:PB:g=original	!	!	!
2A\	.	4c\	Ruſʒ-	4e\	-iá,	4a\	.
.	.	4d\	.	4f\	.	4b\	Ruſʒ-
=12-	=12-	=12-	=12-	=12-	=12-	=12-	=12-
2E/	Ruſʒ-	4e\	.	4g\	.	4cc\	.
.	.	4d\	.	4f\	Ruſʒ-	4b\	-wá
4A\	.	4c/	-wá	4e\	.	4a\	.
4B\	.	4B/	ró-	4d\	.	4g\	ró-
4c\	-wá	4e\	.	2e\	-wá	4a\	-ʒ̇a
4B\	ró-	2d\	-ʒ̇a-	.	.	4b\	.
2A\	-ʒ̇a-	.	.	2f\	ró-	2cc\	-néy
.	.	4c\	.	.	.	.	.
=13-	=13-	=13-	=13-	=13-	=13-	=13-	=13-
2G\	-néy	2d\	-néy	2g\	-ʒ̇a-	2b\	.
!LO:SIC:v= prawdopodobnie brakuje dźwięku 2G	!	!	!	!	!	!	!
2ryy	.	4B/	ʒá-	2g\	-néy	4d/	ʒárʒe
.	.	4c/	.	.	.	4e/	ʒ
4D/	ʒá-	4d\	-rʒe	2f\	ʒárʒe	4f/	iéy
4E/	.	4c\	ʒ	.	.	4g/	.
4F/	-rʒe	2.A/	iéy	2c/	.	4a\	.
4E/	.	.	.	.	.	4g\	.
=14-	=14-	=14-	=14-	=14-	=14-	=14-	=14-
2D/	ʒ iéy	.	.	2d\	ʒ	4f/	.
.	.	4B/	po-	.	.	4d/	.
2C/	.	4c/	.	2e\	iéy	1g\	.
.	.	4B/	.	.	.	.	.
1D/	poko-	4A/	.	2.d\	poko-	.	.
.	.	4G/	.	.	.	.	.
.	.	2A/	-ko-	.	.	2f/	poko-
.	.	.	.	4c/	-iá.	.	.
=15-	=15-	=15-	=15-	=15-	=15-	=15-	=15-
000G\	-iá.	000/G	-iá.	000B/	.	000\g	-iá.
==-	==-	==-	==-	==-	==-	==-	==-
*-	*-	*-	*-	*-	*-	*-	*-
!!!RDF**kern: l = terminal long
!!!system-decoration: s1,s2,s3,s4
!!!ENC: Leszek Kubiak
!!!END: data 2020-02-19
!!!URL-scan: https://polona.pl/item/melodiae-na-psalterz-polski,Nzk3MTM4ODQ/250 Scan on Polona
!!!IIIF: https://polona.pl/iiif/item/Nzk3MTM4ODQ/manifest.json
